X: 30927
T: Over The Moor To Peggy
R: reel
M: 4/4
K: Gmajor
|:d2 BG dG (3GGG|dGBG c2Bc|d2 BG dG (3GGG|cBAB cege:|
|:d~g3 dece|d~g3 c2Bc|1 d~g3 dece|cBAB (3cdc Bc:|2 d~g3b~g3|fdBd g2ge||

